packages/foundations/assets/icons/functional/images/security/key.svg

<svg xmlns="http://www.w3.org/2000/svg" width="32" height="32" fill="none"><path fill="#1A1C1F" fill-rule="evenodd" d="M23.84 2.096c-.142.045-1.452 1.315-5.455 5.288-2.898 2.876-5.298 5.225-5.334 5.221l-.704-.124c-.885-.16-2.145-.162-3.037-.005-2.351.414-4.485 1.798-5.8 3.762a8.83 8.83 0 0 0-.556 8.923c.809 1.607 2.278 3.076 3.885 3.885a8.86 8.86 0 0 0 5.787.767c3.81-.795 6.604-3.938 7.008-7.884.087-.846-.011-2.109-.22-2.834l-.053-.185 1.54-1.548c.846-.852 1.581-1.63 1.631-1.73.051-.099.181-.603.289-1.12l.196-.939.935-.193c1.006-.208 1.177-.273 1.451-.546.261-.262.334-.456.543-1.449.104-.494.2-.909.213-.922s.422-.104.908-.202.961-.215 1.055-.26c.286-.137 1.603-1.46 1.732-1.74.109-.237.113-.332.129-2.613.014-1.896.002-2.419-.057-2.622-.096-.332-.437-.715-.777-.873l-.269-.125-2.427.005c-1.608.003-2.489.024-2.613.063M28 5.706v1.705l-.413.396-.413.396-1.12.223c-.616.123-1.231.246-1.367.275l-.246.051-.26 1.284c-.224 1.102-.276 1.288-.368 1.322-.058.022-.64.144-1.293.272-.876.173-1.193.255-1.211.315-.013.045-.147.682-.297 1.415l-.272 1.333-1.801 1.814-1.801 1.813.126.453c.308 1.106.356 1.425.359 2.374.005 1.274-.177 2.055-.731 3.14a6.796 6.796 0 0 1-9.163 2.96c-1.559-.797-2.811-2.243-3.353-3.875-.277-.832-.34-1.239-.34-2.199 0-.962.063-1.366.343-2.208a6.81 6.81 0 0 1 3.836-4.103c1.547-.64 3.002-.677 5.022-.127l.464.127 5.456-5.428 5.456-5.428 1.694-.003L28 4zM10.24 19.034a2.8 2.8 0 0 0-.848.467c-.955.818-1.009 2.327-.115 3.222.897.896 2.404.84 3.226-.12.948-1.107.579-2.785-.756-3.438-.264-.13-.378-.152-.84-.162-.293-.007-.594.007-.667.031"/></svg>

<svg width="32" height="32" viewBox="0 0 32 32" fill="none" xmlns="http://www.w3.org/2000/svg"><path d="M23.840 2.096 C 23.698 2.141,22.388 3.411,18.385 7.384 C 15.487 10.260,13.087 12.609,13.051 12.605 C 13.016 12.600,12.699 12.544,12.347 12.481 C 11.462 12.321,10.202 12.319,9.310 12.476 C 6.959 12.890,4.825 14.274,3.510 16.238 C 1.721 18.908,1.510 22.295,2.954 25.161 C 3.763 26.768,5.232 28.237,6.839 29.046 C 8.632 29.949,10.678 30.220,12.626 29.813 C 16.436 29.018,19.230 25.875,19.634 21.929 C 19.721 21.083,19.623 19.820,19.414 19.095 L 19.361 18.910 20.901 17.362 C 21.747 16.510,22.482 15.732,22.532 15.632 C 22.583 15.533,22.713 15.029,22.821 14.512 L 23.017 13.573 23.952 13.380 C 24.958 13.172,25.129 13.107,25.403 12.834 C 25.664 12.572,25.737 12.378,25.946 11.385 C 26.050 10.891,26.146 10.476,26.159 10.463 C 26.172 10.450,26.581 10.359,27.067 10.261 C 27.553 10.163,28.028 10.046,28.122 10.001 C 28.408 9.864,29.725 8.541,29.854 8.261 C 29.963 8.024,29.967 7.929,29.983 5.648 C 29.997 3.752,29.985 3.229,29.926 3.026 C 29.830 2.694,29.489 2.311,29.149 2.153 L 28.880 2.028 26.453 2.033 C 24.845 2.036,23.964 2.057,23.840 2.096 M28.000 5.706 L 28.000 7.411 27.587 7.807 L 27.174 8.203 26.054 8.426 C 25.438 8.549,24.823 8.672,24.687 8.701 L 24.441 8.752 24.181 10.036 C 23.957 11.138,23.905 11.324,23.813 11.358 C 23.755 11.380,23.173 11.502,22.520 11.630 C 21.644 11.803,21.327 11.885,21.309 11.945 C 21.296 11.990,21.162 12.627,21.012 13.360 L 20.740 14.693 18.939 16.507 L 17.138 18.320 17.264 18.773 C 17.572 19.879,17.620 20.198,17.623 21.147 C 17.628 22.421,17.446 23.202,16.892 24.287 C 15.179 27.642,11.087 28.964,7.729 27.247 C 6.170 26.450,4.918 25.004,4.376 23.372 C 4.099 22.540,4.036 22.133,4.036 21.173 C 4.036 20.211,4.099 19.807,4.379 18.965 C 4.989 17.130,6.411 15.609,8.215 14.862 C 9.762 14.222,11.217 14.185,13.237 14.735 L 13.701 14.862 19.157 9.434 L 24.613 4.006 26.307 4.003 L 28.000 4.000 28.000 5.706 M10.240 19.034 C 9.948 19.131,9.601 19.322,9.392 19.501 C 8.437 20.319,8.383 21.828,9.277 22.723 C 10.174 23.619,11.681 23.563,12.503 22.603 C 13.451 21.496,13.082 19.818,11.747 19.165 C 11.483 19.035,11.369 19.013,10.907 19.003 C 10.614 18.996,10.313 19.010,10.240 19.034 " fill="#1A1C1F" stroke="none" fill-rule="evenodd"></path></svg>
